website/hardware-icon.svg

<svg version="1.1" xmlns="http://www.w3.org/2000/svg" xmlns:xlink="http://www.w3.org/1999/xlink" width="13.55698" height="17.54202" viewBox="0,0,13.55698,17.54202"><g transform="translate(-233.22753,-171.00051)"><g data-paper-data="{&quot;isPaintingLayer&quot;:true}" fill-rule="evenodd" stroke-miterlimit="10" stroke-dasharray="" stroke-dashoffset="0" style="mix-blend-mode: normal"><path d="M242.85527,179.53587h-5.69927c-0.70255,0 -1.27273,-0.56891 -1.27273,-1.27273v-2.12673c0,-0.70255 0.57018,-1.27273 1.27273,-1.27273h5.69927c0.70382,0 1.27273,0.57018 1.27273,1.27273v2.12673c0,0.70382 -0.56891,1.27273 -1.27273,1.27273" fill="#ffffff" stroke="#ffffff" stroke-width="1" stroke-linecap="butt" stroke-linejoin="miter"/><path d="M242.36311,184.57829h-4.71418c-0.62745,0 -1.13655,-0.50909 -1.13655,-1.13782v-0.92782c0,-1.92945 1.56418,-3.49364 3.49364,-3.49364c1.92945,0 3.49364,1.56418 3.49364,3.49364v0.92782c0,0.62873 -0.50909,1.13782 -1.13655,1.13782" fill="#ffffff" stroke="#ffffff" stroke-width="1" stroke-linecap="butt" stroke-linejoin="miter"/><path d="M241.027,187.0218c0,0.56255 -0.45691,1.02073 -1.02073,1.02073c-0.56382,0 -1.02073,-0.45818 -1.02073,-1.02073c0,-0.56382 0.45691,-1.022 1.02073,-1.022c0.56382,0 1.02073,0.45818 1.02073,1.022" fill="#ffffff" stroke="#ffffff" stroke-width="1" stroke-linecap="butt" stroke-linejoin="miter"/><path d="M241.28053,172.77451c0,0.70509 -0.57018,1.27527 -1.274,1.27527c-0.70509,0 -1.27527,-0.57018 -1.27527,-1.27527c0,-0.70382 0.57018,-1.274 1.27527,-1.274c0.70382,0 1.274,0.57018 1.274,1.274" fill="#ffffff" stroke="#ffffff" stroke-width="1" stroke-linecap="butt" stroke-linejoin="miter"/><path d="M240.00653,187.0218v-14.252" fill="#ffffff" stroke="#ffffff" stroke-width="0.75" stroke-linecap="butt" stroke-linejoin="miter"/><path d="M234.76162,184.78091c0,-2.89673 2.34818,-5.24491 5.24491,-5.24491c2.89545,0 5.24364,2.34818 5.24364,5.24491" fill="#ffffff" stroke="#ffffff" stroke-width="1" stroke-linecap="round" stroke-linejoin="round"/><path d="M244.21633,185.815c0,-0.57145 0.46327,-1.03345 1.03345,-1.03345c0.57273,0 1.03473,0.462 1.03473,1.03345" fill="#ffffff" stroke="#ffffff" stroke-width="1" stroke-linecap="round" stroke-linejoin="round"/><path d="M233.72753,185.815c0,-0.57145 0.462,-1.03345 1.03345,-1.03345c0.57145,0 1.03473,0.462 1.03473,1.03345" fill="#ffffff" stroke="#ffffff" stroke-width="1" stroke-linecap="round" stroke-linejoin="round"/><path d="M242.00636,177.90398h-4.00145c-0.38818,0 -0.70255,-0.31436 -0.70255,-0.70382c0,-0.38818 0.31436,-0.70382 0.70255,-0.70382h4.00145c0.38945,0 0.70509,0.31564 0.70509,0.70382c0,0.38945 -0.31564,0.70382 -0.70509,0.70382" fill="#000000" stroke="none" stroke-width="1" stroke-linecap="butt" stroke-linejoin="miter"/></g></g></svg>

<?xml version="1.0" standalone="no"?>
<!DOCTYPE svg PUBLIC "-//W3C//DTD SVG 1.0//EN" "http://www.w3.org/TR/2001/REC-SVG-20010904/DTD/svg10.dtd">
<svg xmlns="http://www.w3.org/2000/svg" xmlns:xlink="http://www.w3.org/1999/xlink" id="body_1" width="24" height="32">

<g transform="matrix(1.7703059 0 0 1.7703059 -0 0.4726298)">
	<g transform="matrix(1 0 0 1 -233.22752 -171.0005)">
		<g>
            <path d="M242.85527 179.53587L237.156 179.53587C 236.45346 179.53587 235.88327 178.96696 235.88327 178.26314L235.88327 178.26314L235.88327 176.13641C 235.88327 175.43387 236.45345 174.86368 237.156 174.86368L237.156 174.86368L242.85527 174.86368C 243.5591 174.86368 244.128 175.43385 244.128 176.13641L244.128 176.13641L244.128 178.26314C 244.128 178.96696 243.5591 179.53587 242.85527 179.53587" stroke="#FFFFFF" stroke-width="1" fill="#FFFFFF" fill-rule="nonzero" />
            <path d="M242.36311 184.5783L237.64893 184.5783C 237.02147 184.5783 236.51237 184.0692 236.51237 183.44048L236.51237 183.44048L236.51237 182.51265C 236.51237 180.5832 238.07655 179.01901 240.00601 179.01901C 241.93546 179.01901 243.49965 180.58319 243.49965 182.51265L243.49965 182.51265L243.49965 183.44048C 243.49965 184.0692 242.99055 184.5783 242.3631 184.5783" stroke="#FFFFFF" stroke-width="1" fill="#FFFFFF" fill-rule="nonzero" />
            <path d="M241.027 187.0218C 241.027 187.58435 240.57008 188.04254 240.00626 188.04254C 239.44243 188.04254 238.98552 187.58437 238.98552 187.0218C 238.98552 186.45798 239.44243 185.9998 240.00626 185.9998C 240.57008 185.9998 241.027 186.45798 241.027 187.0218" stroke="#FFFFFF" stroke-width="1" fill="#FFFFFF" fill-rule="nonzero" />
            <path d="M241.28053 172.7745C 241.28053 173.4796 240.71036 174.04977 240.00653 174.04977C 239.30144 174.04977 238.73126 173.4796 238.73126 172.7745C 238.73126 172.07068 239.30144 171.5005 240.00653 171.5005C 240.71036 171.5005 241.28053 172.07068 241.28053 172.7745" stroke="#FFFFFF" stroke-width="1" fill="#FFFFFF" fill-rule="nonzero" />
            <path d="M240.00653 187.0218L240.00653 172.7698" stroke="#FFFFFF" stroke-width="0.75" fill="#FFFFFF" fill-rule="nonzero" />
            <path d="M234.76163 184.78091C 234.76163 181.88419 237.1098 179.53601 240.00653 179.53601C 242.90198 179.53601 245.25017 181.88419 245.25017 184.78091" stroke="#FFFFFF" stroke-width="1" stroke-linecap="square" fill="#FFFFFF" fill-rule="nonzero" />
            <path d="M244.21632 185.815C 244.21632 185.24355 244.6796 184.78156 245.24977 184.78156C 245.8225 184.78156 246.2845 185.24356 246.2845 185.815" stroke="#FFFFFF" stroke-width="1" stroke-linecap="square" fill="#FFFFFF" fill-rule="nonzero" />
            <path d="M233.72752 185.815C 233.72752 185.24355 234.18953 184.78156 234.76097 184.78156C 235.33243 184.78156 235.7957 185.24356 235.7957 185.815" stroke="#FFFFFF" stroke-width="1" stroke-linecap="square" fill="#FFFFFF" fill-rule="nonzero" />
            <path d="M242.00636 177.90398L238.00491 177.90398C 237.61673 177.90398 237.30237 177.58961 237.30237 177.20015C 237.30237 176.81197 237.61673 176.49632 238.00491 176.49632L238.00491 176.49632L242.00636 176.49632C 242.39581 176.49632 242.71146 176.81197 242.71146 177.20015C 242.71146 177.5896 242.39581 177.90398 242.00636 177.90398" stroke="none" fill="#000000" fill-rule="nonzero" />
		</g>
	</g>
</g>
</svg>
